X:101
T:Tio personen folskan
T:Vijfparendans
R:Polka
O:Finland
Z:Bert Van Vreckem <http://flanders.blackmill.net/music/>
M:2/4
L:1/8
K:D
"D"A>G FG|Ad d2|A>G FE|"A7"EF "D"D2|A>G FG|Ad dd/e/|"G"fd "A7"ec|"D"d2d2 :|
"D"f>d ff|"G"e>c ee|"D"f>d ff|"A"e/d/c/B/ "A7"A2|"D"f>d ff|"G"e>c eg|"D"fd "A7"ec|"D"d2d2 :|

